icons/icn_linea.svg

<svg width="24" xmlns="http://www.w3.org/2000/svg" height="24" id="screenshot-a692a29b-b9de-80cb-8006-a15c5a672169" viewBox="0 0 24 24" xmlns:xlink="http://www.w3.org/1999/xlink" fill="none" version="1.1"><g id="shape-a692a29b-b9de-80cb-8006-a15c5a672169"><g class="frame-container-wrapper"><g class="frame-container-blur"><g class="frame-container-shadows"><g fill="none"><g class="fills" id="fills-a692a29b-b9de-80cb-8006-a15c5a672169"><rect rx="0" ry="0" x="0" y="0" width="24" height="24.000000000000455" transform="matrix(1, 0, 0, 1, 0, 0)" class="frame-background"/></g><g class="frame-children"><g id="shape-a692a29b-b9de-80cb-8006-a15bf6ae24b5" rx="0" ry="0"><g id="shape-a692a29b-b9de-80cb-8006-a15ba359688b" style="opacity: 1;"><g class="fills" id="fills-a692a29b-b9de-80cb-8006-a15ba359688b"><path d="M2.995898485183716,8.635009765625C2.519824266433716,8.6368408203125,2.135058641433716,9.0220947265625,2.133105516433716,9.4981689453125L2.133105516433716,14.501708984375C2.135058641433716,14.9779052734375,2.519824266433716,15.363525390625,2.995898485183716,15.3653564453125C3.226611375808716,15.3663330078125,3.447070360183716,15.27587890625,3.610400438308716,15.114013671875C3.773730516433716,14.9520263671875,3.866015672683716,14.73193359375,3.866992235183716,14.501708984375L3.866992235183716,12.8634033203125L20.131153106689453,12.8634033203125L20.131153106689453,14.501708984375C20.131885528564453,14.73193359375,20.224170684814453,14.9520263671875,20.387500762939453,15.114013671875C20.550830841064453,15.27587890625,20.772266387939453,15.3663330078125,21.002246856689453,15.3653564453125C21.478321075439453,15.363525390625,21.863086700439453,14.9779052734375,21.864795684814453,14.501708984375L21.864795684814453,9.4981689453125C21.863086700439453,9.0220947265625,21.478321075439453,8.6368408203125,21.002246856689453,8.635009765625C20.772266387939453,8.633544921875,20.550830841064453,8.7239990234375,20.387500762939453,8.885986328125C20.224170684814453,9.0478515625,20.131885528564453,9.2679443359375,20.131153106689453,9.4981689453125L20.131153106689453,11.136474609375L3.866992235183716,11.136474609375L3.866992235183716,9.4981689453125C3.866015672683716,9.2679443359375,3.773730516433716,9.0478515625,3.610400438308716,8.885986328125C3.447070360183716,8.7239990234375,3.226611375808716,8.633544921875,2.995898485183716,8.635009765625Z" style="display: inline; stroke-linecap: round; stroke-linejoin: round; fill: rgb(0, 0, 0); fill-opacity: 1;"/></g></g></g></g></g></g></g></g></g></svg>

<svg fill="none" viewBox="0 0 24 24"><g class="frame-container-wrapper"><g class="frame-container-blur"><g class="frame-container-shadows"><g class="fills"><rect width="24" height="24" class="frame-background" rx="0" ry="0"/></g><g class="frame-children"><path fill="#000" d="M2.9959 8.635a.8661.8661 0 0 0-.8628.8632v5.0035c.002.4762.3867.8618.8628.8637a.8668.8668 0 0 0 .871-.8637v-1.6383h16.2643v1.6383a.866.866 0 0 0 .2563.6123.8686.8686 0 0 0 .6147.2514c.4761-.0019.8609-.3875.8626-.8637V9.4982a.8657.8657 0 0 0-.8626-.8632.8657.8657 0 0 0-.871.8632v1.6383H3.867V9.4982a.8668.8668 0 0 0-.8711-.8632Z" class="fills"/></g></g></g></g></svg>
